!!!OTL: Sanctissima Maria
**kern
*staff1
=1-
*clefC4
*k[]
2d\
2G/
4A\
4G/
2c\
=2
2d\
2A\
2f\
2c\
=3
2d\
2A\
4D/
4E/
4F/
4G/
1A
=4
!!linebreak:original
2d\
2A\
4G/
4F/
2E/
=5
2D/
2d\
2A\
4c\
4d\
2A\
2d\
=6
!!linebreak:original
2d\
2G/
2B-\
2.G/
4G/
2d\
=7
!LO:TX:Y=-37:t=P
2f\
2c\
2d\
=8
1G
1A
=9
!LO:TX:Y=-203:t=P
0D
==
*-
!!title: @{OTL}, @{GTL}, ed. @{ENC}
!!!pag:
!!!GTL: Hymnbook D
!!!EFL: 
!!!YEM: Creative Commons CC/BY/NC/SA 4.0
!!!ENC: Marcin Konik
!!!END: 2015-0m-dd
!!!EED: Marcin Konik
!!!EEV: 
!!!ONB: Encoded in vim by Marcin Konik
!!!CharacterEncoding: utf-8
!!!RDF**kern: l=long note in original notation
!!!RDF**kern: i=editorial accidental
!!muse2ps: z14jc180F
!!!COM: Anonim
!!!CDT: [?]
!!!TXO: Polish
!!!ODT: 
!!!GTL: Hymnbook D
!!!ARL: Opactwo św. Wojciecha, Staniątki 
!!!voices:	1
